Numix-GalliumOS/48/status/appointment-soon.svg

<?xml version="1.0" encoding="UTF-8" standalone="no"?>
<svg
   xmlns:dc="http://purl.org/dc/elements/1.1/"
   xmlns:cc="http://creativecommons.org/ns#"
   xmlns:rdf="http://www.w3.org/1999/02/22-rdf-syntax-ns#"
   xmlns:svg="http://www.w3.org/2000/svg"
   xmlns="http://www.w3.org/2000/svg"
   xmlns:sodipodi="http://sodipodi.sourceforge.net/DTD/sodipodi-0.dtd"
   xmlns:inkscape="http://www.inkscape.org/namespaces/inkscape"
   width="48"
   height="48"
   viewBox="0 0 48 48"
   id="svg2"
   version="1.1"
   inkscape:version="0.91 r13725"
   sodipodi:docname="appointment-soon.svg">
  <metadata
     id="metadata14">
    <rdf:RDF>
      <cc:Work
         rdf:about="">
        <dc:format>image/svg+xml</dc:format>
        <dc:type
           rdf:resource="http://purl.org/dc/dcmitype/StillImage" />
        <dc:title />
      </cc:Work>
    </rdf:RDF>
  </metadata>
  <defs
     id="defs12" />
  <sodipodi:namedview
     pagecolor="#ffffff"
     bordercolor="#666666"
     borderopacity="1"
     objecttolerance="10"
     gridtolerance="10"
     guidetolerance="10"
     inkscape:pageopacity="0"
     inkscape:pageshadow="2"
     inkscape:window-width="1366"
     inkscape:window-height="704"
     id="namedview10"
     showgrid="false"
     inkscape:zoom="2.8284271"
     inkscape:cx="-25.44559"
     inkscape:cy="24"
     inkscape:window-x="0"
     inkscape:window-y="27"
     inkscape:window-maximized="1"
     inkscape:current-layer="svg2" />
  <path
     style="fill:#ffffff;fill-rule:evenodd"
     d="M 42,24 C 42,33.942188 33.942187,42 24,42 14.057813,42 6,33.942188 6,24 6,14.057812 14.057813,6 24,6 c 9.942187,0 18,8.057812 18,18 z"
     id="path4"
     inkscape:connector-curvature="0" />
  <path
     style="fill:#268bd2"
     d="M 23.96875 10.96875 C 22.867188 10.984375 21.984375 11.898438 22 13 L 22 24 C 22 24.46875 22.164062 24.921875 22.46875 25.28125 L 27.46875 31.28125 C 27.914062 31.882812 28.648438 32.179688 29.382812 32.070312 C 30.117188 31.953125 30.726562 31.445312 30.96875 30.742188 C 31.210938 30.039062 31.039062 29.257812 30.53125 28.71875 L 26 23.28125 L 26 13 C 26.007812 12.460938 25.796875 11.9375 25.414062 11.554688 C 25.03125 11.171875 24.507812 10.960938 23.96875 10.96875 Z "
     id="path6" />
  <path
     style="fill:#aaa"
     d="M 24 4 C 12.976562 4 4 12.976562 4 24 C 4 35.023438 12.976562 44 24 44 C 35.023438 44 44 35.023438 44 24 C 44 12.976562 35.023438 4 24 4 Z M 24 8 C 32.859375 8 40 15.140625 40 24 C 40 32.859375 32.859375 40 24 40 C 15.140625 40 8 32.859375 8 24 C 8 15.140625 15.140625 8 24 8 Z "
     id="path8" />
  <path
     inkscape:connector-curvature="0"
     style="fill:#dc322f;fill-opacity:1;fill-rule:evenodd"
     d="M 22,36 C 22,41.521485 17.521484,46 12,46 6.478515,46 2,41.521485 2,36 2,30.478515 6.478515,26 12,26 c 5.521484,0 10,4.478515 10,10 z"
     id="path4267" />
  <g
     style="fill:#ffffff;fill-opacity:0.9020004"
     id="g4269"
     transform="matrix(-0.5,0,0,-0.5,24,49)">
    <path
       inkscape:connector-curvature="0"
       d="m 28,40 -8,0 0,-16 8,0 0,16"
       id="path4271" />
    <path
       inkscape:connector-curvature="0"
       style="fill-rule:evenodd"
       d="m 28,16 c 0,2.203125 -1.796875,4 -4,4 -2.203125,0 -4,-1.796875 -4,-4 0,-2.203125 1.796875,-4 4,-4 2.203125,0 4,1.796875 4,4 z"
       id="path4273" />
  </g>
</svg>

<svg xmlns="http://www.w3.org/2000/svg" viewBox="0 0 48 48">
 <path d="m 42 24 c 0 9.942 -8.06 18 -18 18 -9.942 0 -18 -8.06 -18 -18 0 -9.942 8.06 -18 18 -18 c 9.942 0 18 8.06 18 18 z" style="fill:#fff;fill-rule:evenodd"/>
 <path d="m 23.969 10.969 c -1.102 0.016 -1.984 0.93 -1.969 2.031 l 0 11 c 0 0.469 0.164 0.922 0.469 1.281 l 5 6 c 0.445 0.602 1.18 0.898 1.914 0.789 c 0.734 -0.117 1.344 -0.625 1.586 -1.328 c 0.242 -0.703 0.07 -1.484 -0.438 -2.023 l -4.531 -5.438 l 0 -10.281 c 0.008 -0.539 -0.203 -1.063 -0.586 -1.445 c -0.383 -0.383 -0.906 -0.594 -1.445 -0.586 Z" style="fill:#268bd2"/>
 <path d="m 24 4 c -11.02 0 -20 8.977 -20 20 c 0 11.02 8.977 20 20 20 c 11.02 0 20 -8.977 20 -20 c 0 -11.02 -8.977 -20 -20 -20 m 0 4 c 8.859 0 16 7.141 16 16 c 0 8.859 -7.141 16 -16 16 c -8.859 0 -16 -7.141 -16 -16 c 0 -8.859 7.141 -16 16 -16 Z" style="fill:#aaa"/>
 <path d="m 22 36 c 0 5.521 -4.479 10 -10 10 -5.521 0 -10 -4.479 -10 -10 0 -5.521 4.479 -10 10 -10 c 5.521 0 10 4.479 10 10 z" style="fill:#dc322f;fill-opacity:1;fill-rule:evenodd"/>
 <g transform="matrix(-0.5,0,0,-0.5,24,49)" style="fill:#fff;fill-opacity:0.902">
  <path d="m 28 40 -8 0 0 -16 8 0 0 16"/>
  <path d="m 28 16 c 0 2.203 -1.797 4 -4 4 -2.203 0 -4 -1.797 -4 -4 0 -2.203 1.797 -4 4 -4 2.203 0 4 1.797 4 4 z" style="fill-rule:evenodd"/>
 </g>
</svg>
